usr/share/icons/biglinux-icons-material/22/actions/taxes-finances.svg

<svg xmlns="http://www.w3.org/2000/svg" viewBox="0 0 22 22">
  <defs id="defs3051">
    <style type="text/css" id="current-color-scheme">
      .ColorScheme-Text {
        color:#dedede;
      }
      .ColorScheme-Highlight {
        color:#3daee9;
      }
      </style>
  </defs>
 <path 
     style="fill:currentColor;fill-opacity:1;stroke:none" 
     d="M 4 6 L 4 6.5 L 4 7 L 3 7 L 3 7.9082031 L 3 9 L 3 14 L 3 14.091797 L 3 15 L 3.5 15 L 4 15 L 4 16 L 4.9082031 16 L 6 16 L 16 16 L 16.091797 16 L 17.091797 16 L 18 16 L 18 15 L 18.5 15 L 19 15 L 19 14.091797 L 19 13 L 19 9 L 19 7.9082031 L 19 7 L 18 7 L 18 6.5 L 18 6 L 17.091797 6 L 16.091797 6 L 4.9082031 6 L 4 6 z M 4.9082031 7 L 16.091797 7 L 17.091797 7 C 17.242137 7.4247 17.5753 7.7578631 18 7.9082031 L 18 9 L 18 13 L 18 14.091797 C 17.5753 14.242137 17.242137 14.5753 17.091797 15 L 16.091797 15 L 16 15 L 6 15 L 4.9082031 15 C 4.7578631 14.5753 4.4247 14.242137 4 14.091797 L 4 13 L 4 9 L 4 7.9082031 C 4.4247013 7.7578551 4.7578551 7.4247013 4.9082031 7 z M 11 8 C 9.338 8 8 9.338 8 11 C 8 12.662 9.338 14 11 14 C 12.662 14 14 12.662 14 11 C 14 9.338 12.662 8 11 8 z M 11 9 C 12.108 9 13 9.892 13 11 C 13 12.108 12.108 13 11 13 C 9.892 13 9 12.108 9 11 C 9 9.892 9.892 9 11 9 z "
     class="ColorScheme-Text"
     />
</svg>

<svg xmlns="http://www.w3.org/2000/svg" viewBox="0 0 22 22"><defs id="defs3051"><style id="current-color-scheme" type="text/css">.ColorScheme-Highlight{color:#3daee9}</style></defs><path d="M4 6v1H3v8h1v1h14v-1h1V7h-1V6H4zm.908 1h12.184c.15.425.483.758.908.908V14.092a1.49 1.49 0 0 0-.908.908H4.908A1.49 1.49 0 0 0 4 14.092V7.908A1.49 1.49 0 0 0 4.908 7zM11 8c-1.662 0-3 1.338-3 3s1.338 3 3 3 3-1.338 3-3-1.338-3-3-3zm0 1c1.108 0 2 .892 2 2s-.892 2-2 2-2-.892-2-2 .892-2 2-2z" style="fill:currentColor;fill-opacity:1;stroke:none;color:#dedede"/></svg>
